!!!SOCIAL_FUNCTION:	dream songs
!!!PDT:	1929
!!!OTL: No_156_The_Thunder_Sounds_in_the_East.krn
!!!REG: Southwest
!!!LANG: Non-Tone
!!!LING_GROUP: Uto-Aztecan
**kern
*staff1
=1-
*clefF4
*k[f#c#]
*M3/4
8f#\L
8f#\J
4f#\
4e\
=2
[2d\
8.d\L]
16B\Jk
=3||
*M2/4
4B\
8A\
8r
=4||
*M3/4
4e\
4e\
8e\
8r
=5||
*M2/4
4f#\
4f#\
=6
8e\L
8e\J
4e\
=7
4d\
8.d\L
16A\Jk
=8
2A\
=9
8.F#\L
16E\Jk
8E\
8r
=10
4A\
8.A\L
16F#\Jk
=11
4B\
4A\
=12
2A\
=13
4A\
4r
=14
4e\
8.e\L
16e\Jk
=15
4e\
4e\
=16
8.e\L
16d\Jk
4B\
=17
4d\
4d\
=18
4.d\
8B\
=19
16B\LK
[8.A\J
8A\]
8r
=20||
*M3/4
4B\
4B\
4B\
=21||
*M2/4
4A\
4e\
=22
4d\
8d\L
8A\J
=23
2A\
=24||
*M3/4
8F#\L
[8E\J
8E\]
8r
4A\
=25||
*M2/4
8A\L
8F#\J
4B\
=26
[2A\
=27
4A\]
8F#\L
8E\J
=28||
*M3/4
2.A\
=29
4A\
2r
==
*-
